symbolic/status/arch-updates-symbolic.svg

<svg width="16" height="16" version="1.1" xmlns="http://www.w3.org/2000/svg">
 <path class="warning" d="m16 13.5a1.5 1.5 0 0 1-1.5 1.5 1.5 1.5 0 0 1-1.5-1.5 1.5 1.5 0 0 1 1.5-1.5 1.5 1.5 0 0 1 1.5 1.5z" fill="#5294e2"/>
 <path d="m8 4c0.55228 0 1 0.44772 1 1s-0.44772 1-1 1-1-0.44772-1-1 0.44772-1 1-1zm-2 3h3v5h-2v-4h-1z" fill="#5d656b"/>
 <path d="m8 1-6 2c0 3.9895-0.017497 6.0713 0.70898 7.6543 0.72698 1.5834 2.2176 2.6261 5.291 4.3457 3.0734-1.7196 4.564-2.7618 5.291-4.3457 0.72648-1.583 0.70948-3.6653 0.70898-7.6543zm0 1 5 1.7148c4.17e-4 3.4192 0.01556 5.2037-0.58984 6.5605-0.60582 1.3577-1.849 2.2507-4.4102 3.7246-2.5612-1.4739-3.8043-2.3674-4.4102-3.7246-0.6054-1.3568-0.58984-3.141-0.58984-6.5605z" color="#000000" fill="#5d656b" solid-color="#000000" stroke-width=".4913" style="isolation:auto;mix-blend-mode:normal"/>
</svg>

<svg xmlns="http://www.w3.org/2000/svg" width="16" height="16" version="1.1">
 <path style="fill:#ff9800" class="warning" d="M 16,13.5 A 1.5,1.5 0 0 1 14.5,15 1.5,1.5 0 0 1 13,13.5 1.5,1.5 0 0 1 14.5,12 1.5,1.5 0 0 1 16,13.5 Z"/>
 <path style="fill:#323a41" d="M 8 1 C 6.175 2.725 3 4 2 4.25 C 2 9 4.25 14.25 8 15 C 11.75 14.25 14 9 14 4.25 C 13 4 9.825 2.725 8 1 z M 8 4 A 1 1 0 0 1 9 5 A 1 1 0 0 1 8 6 A 1 1 0 0 1 7 5 A 1 1 0 0 1 8 4 z M 6 7 L 7 7 L 9 7 L 9 12 L 7 12 L 7 8 L 6 8 L 6 7 z"/>
</svg>
